X:6
T:Beaux Strategem
S:Bernie Waugh
R:Reel
M:4/4
L:1/8
K:A minor
|:(3dcB|\
"Am"A2E2 E2A2|"E"^G3A B2E2|"Am"cBA^G ABcd|edcB "Dm"Ac"tr"B2|
"Am"A2E2 E2A2|"E"^G3A B2E2|"Am"cBcd "Dm"~d3e|"E"e6:|
|:ed|\
"C"cBcd "D7"ede^f|"G"g2G2 G2gf|"Am"edcB "B7"ABcd|"E"e2E2 E2(3efg|
"Dm"a2d2 fe c2|"Am"eBcA "E"^G2e2|"Dm"dcBA "E"E2^G2|"Am"A6:|

